!!!!SEGMENT: pl-sa--554-a-ix-34--006_anonim-sonata.krn
!!!id: 18xx:569
!!!COM: Anonim
!!!OTL: Sonata
!!!PDT:
!!!SMS-siglum: PL-SA
!!!SMS-shelfmark: 554/A IX 34
!!!SMS-variant:
!!!SMS-altvar:
!!!NIFC-rismID: 1001069598
!!!system-decoration: {(s1,s2)}
**kern	**kern
*part1	*part1
*staff2	*staff1
*	*I"Piano
*clefF4	*clefG2
*k[]	*k[]
*M4/4	*M4/4
*met(c)	*met(c)
*>[A,A,B,B]	*>[A,A,B,B]
=1	=1
*>A	*>A
*2\right	*2\right
!	!LO:TX:a:Bi:t=Sonata:problem:'Sonata' znajduje się po lewej stronie systemu
!LO:TX:a:t=P:mixed beam:problem	!
8C/L	4.cc 4.g 4.e\
8c\	.
8c\	.
8c\J	8dd 8b\
*rep	*
!LO:TX:a:t=P:mixed beam:problem	!
8C/L	4.ee 4.cc\
8c\	.
8c\	.
8c\J	8ff 8dd\
*Xrep	*
=2	=2
*rep	*
!LO:TX:a:t=P:mixed beam:problem	!
8C/L	8ggL 8ee\
8c\	8cc\J
8c\	8cccL 8aa\
8c\J	8aaJ 8ff\
*Xrep	*
*rep	*
!LO:TX:a:t=P:mixed beam:problem	!
8C/L	4aa 4ff\
8c\	.
8c\	4gg 4ee\
8c\J	.
*Xrep	*
=3	=3
!LO:TX:a:t=P:mixed beam:problem	!
8GG/L	4.gg 4.dd 4.b\
8G\	.
8G\	.
8G\J	8a\
*rep	*
!LO:TX:a:t=P:mixed beam:problem	!
8GG/L	4.b 4.g\
8G\	.
8G\	.
8G\J	8cc 8a\
*Xrep	*
=4	=4
*rep	*
!LO:TX:a:t=P:mixed beam:problem	!
8GG/L	8ddL 8b\
8G\	8g\J
8G\	8aaL 8ff\
8G\J	8ffJ 8dd\
*Xrep	*
!LO:TX:a:t=P:mixed beam:problem	!
8C/L	8ffL 8dd\
8c\	8eeJ 8cc\
8c\	4ee 4cc\
8c\J	.
=5	=5
8CC/L	4.cc 4.g 4.e/
8C/	.
8C/	.
8C/J	8d 8B/
*rep	*
8CC/L	4.e 4.c/
8C/	.
8C/	.
8C/J	8f 8d/
*Xrep	*
=6	=6
*rep	*
!	!LO:TX:a:t=P:w źródle w pierwszej grupie ósemek porpawki skryptora:problem
8CC/L	8gL 8e/
8C/	8eJ 8c/
8C/	8ccL 8a\
8C/J	8aJ 8f\
*Xrep	*
*rep	*
8CC/L	8aL 8f\
8C/	8gJ 8e\
8C/	4g 4e\
8C/J	.
*Xrep	*
=7	=7
.	8qgg 8qee/
!LO:TX:a:t=P:mixed beam:problem	!
8GG/L	4ff 4dd\
8G\	.
8G\	4ee 4cc\
8G\J	.
.	8qgg 8qee/
*rep	*
!LO:TX:a:t=P:mixed beam:problem	!
8GG/L	4ff 4dd\
8G\	.
8G\	4ee 4cc\
8G\J	.
*Xrep	*
=8	=8
!	!LO:TX:a:t=P:w źródle ten takt dopisany nad taktem 8:problem
4G 4GG\	8ffL 8dd\
.	8ee 8cc\
4r	8dd 8b\
.	8ccJ 8a\
4G 4GG\	8bL 8g/
.	8a 8f/
4r	8g 8e/
.	8fJ 8d/
=9	=9
4C 4CC/	16e\LL
.	16c\
.	16d\
.	16e\JJ
4r	16f\LL
.	16g\
.	16a\
.	16b\JJ
4C 4CC/	16cc\LL
.	16g\
.	16a\
.	16b\JJ
4r	16cc\LL
.	16dd\
.	16ee\
.	16ff\JJ
=10	=10
4C 4CC/	16gg\LL
.	16cc\
.	16dd\
.	16ee\JJ
4r	16ff\LL
.	16gg\
.	16aa\
.	16bb\JJ
4c 4G 4E 4C\	8ccc\L
.	8gg\
4r	8ee\
.	8cc\J
=11	=11
8dL 8D/	16ff\LL
.	16gg\
8c 8C/	16ee\
.	16gg\JJ
8B 8BB/	16dd\LL
.	16gg\
8AJ 8AA/	16cc\
.	16gg\JJ
!!LO:LB:g=original
8GL 8GG/	16b\LL
.	16gg\
8F 8FF/	16a\
.	16gg\JJ
8E 8EE/	16g\LL
.	16gg\
8DJ 8DD/	16f\
.	16gg\JJ
=12	=12
8CC/L	16e\LL
.	16c\
8C/J	16d\
.	16e\JJ
*rep	*
8CC/L	16f\LL
.	16g\
8C/J	16a\
.	16b\JJ
*Xrep	*
*rep	*
8CC/L	16cc\LL
.	16dd\
8C/J	16ee\
.	16dd\JJ
*Xrep	*
*rep	*
8CC/L	16cc\LL
.	16b\
8C/J	16a\
.	16g\JJ
*Xrep	*
=13	=13
8DD/L	16f\LL
.	16d\
8D/J	16e\
.	16f\JJ
*rep	*
8DD/L	16g\LL
.	16a\
8D/J	16b\
.	16cc\JJ
*Xrep	*
*rep	*
8DD/L	16dd\LL
.	16ee\
8D/J	16ff\
.	16ee\JJ
*Xrep	*
*rep	*
8DD/L	16dd\LL
.	16cc\
8D/J	16b\
.	16a\JJ
*Xrep	*
=14	=14
!LO:TX:a:t=P:mixed beam:problem	!
8EE/L	16g\LL
.	16e\
8E\J	16f\
.	16g\JJ
*rep	*
!LO:TX:a:t=P:mixed beam:problem	!
8EE/L	16a\LL
.	16b\
8E\J	16cc\
.	16dd\JJ
*Xrep	*
*rep	*
!LO:TX:a:t=P:mixed beam:problem	!
8EE/L	16ee\LL
.	16ff\
8E\J	16gg\
.	16ff\JJ
*Xrep	*
*rep	*
!LO:TX:a:t=P:mixed beam:problem	!
8EE/L	16ee\LL
.	16dd\
8E\J	16cc\
.	16b\JJ
*Xrep	*
=15	=15
!LO:TX:a:t=P:mixed beam:problem	!
8FF/L	16a\LL
.	16f\
8F\J	16g\
.	16a\JJ
*rep	*
!LO:TX:a:t=P:mixed beam:problem	!
8FF/L	16b\LL
.	16cc\
8F\J	16dd\
.	16ee\JJ
*Xrep	*
*rep	*
!LO:TX:a:t=P:mixed beam:problem	!
8FF/L	16ff\LL
.	16gg\
8F\J	16aa\
.	16gg\JJ
*Xrep	*
*rep	*
!LO:TX:a:t=P:mixed beam:problem	!
8FF/L	16ff\LL
.	16ee\
8F\J	16dd\
.	16cc\JJ
*Xrep	*
=16	=16
!LO:TX:a:t=P:mixed beam:problem	!
8GG/L	4gg 4dd 4b\
8G\	.
8D\	4gg 4dd 4b\
8BB\J	.
4GG/	4gg 4dd 4b\
4r	4r
=17	=17
.	8qcc#X/
16G\LL	4dd\
16d\	.
16B\	.
16d\JJ	.
*rep	*
16G\LL	4dd\
16d\	.
16B\	.
16d\JJ	.
*Xrep	*
*rep	*
16G\LL	8r
16d\	.
16B\	8dd\L
16d\JJ	.
*Xrep	*
*rep	*
16G\LL	8dd\
16d\	.
16B\	8gg\J
16d\JJ	.
*Xrep	*
=18	=18
16A\LL	8gg\L
16d\	.
16c\	8ff#X\J
16d\JJ	.
*rep	*
16A\LL	2ff#\
16d\	.
16c\	.
16d\JJ	.
*Xrep	*
*rep	*
16A\LL	.
16d\	.
16c\	.
16d\JJ	.
*Xrep	*
*rep	*
16A\LL	8r
16d\	.
16c\	8ee\
16d\JJ	.
*Xrep	*
!!LO:LB:g=original
=19	=19
16F#X\LL	8ee\L
16d\	.
16A\	8dd\J
16d\JJ	.
*rep	*
16F#\LL	2dd\
16d\	.
16A\	.
16d\JJ	.
*Xrep	*
*rep	*
16F#\LL	.
16d\	.
16A\	.
16d\JJ	.
*Xrep	*
*rep	*
16F#\LL	8r
16d\	.
16A\	8cc\
16d\JJ	.
*Xrep	*
=20	=20
16G\LL	8cc\L
16d\	.
16B\	8b\J
16d\JJ	.
*rep	*
16G\LL	8ee\L
16d\	.
16B\	8dd\J
16d\JJ	.
*Xrep	*
*rep	*
16G\LL	4dd\
16d\	.
16B\	.
16d\JJ	.
*Xrep	*
*rep	*
16G\LL	4r
16d\	.
16B\	.
16d\JJ	.
*Xrep	*
=21	=21
16G\LL	8gg\L
16e\	.
16c\	8ee\J
16e\JJ	.
*rep	*
16G\LL	4ee\
16e\	.
16c\	.
16e\JJ	.
*Xrep	*
*rep	*
16G\LL	4r
16e\	.
16c\	.
16e\JJ	.
*Xrep	*
*rep	*
16G\LL	16ee\LL
16e\	16dd\
16c\	16ee\
16e\JJ	16ff#X\JJ
*Xrep	*
=22	=22
16G\LL	8gg\L
16d\	.
16B\	8dd\J
16d\JJ	.
*rep	*
16G\LL	2dd\
16d\	.
16B\	.
16d\JJ	.
*Xrep	*
*rep	*
16G\LL	.
16d\	.
16B\	.
16d\JJ	.
*Xrep	*
*rep	*
16G\LL	8r
16d\	.
16B\	8dd\
16d\JJ	.
*Xrep	*
=23	=23
16A\LL	8dd\L
16d\	.
16c\	8cc\
16d\JJ	.
*rep	*
16A\LL	8b\
16d\	.
16c\	8a\J
16d\JJ	.
*Xrep	*
*rep	*
16A\LL	8g\L
16d\	.
16c\	8f#X\
16d\JJ	.
*Xrep	*
*rep	*
16A\LL	8a\
16d\	.
16c\	8cc\J
16d\JJ	.
*Xrep	*
=24	=24
16G\LL	8cc\L
16d\	.
16B\	8b\
16d\JJ	.
*rep	*
16G\LL	8ee\
16d\	.
16B\	8dd\J
16d\JJ	.
*Xrep	*
*rep	*
16G\LL	4dd\
16d\	.
16B\	.
16d\JJ	.
*Xrep	*
*rep	*
16G\LL	4r
16d\	.
16B\	.
16d\JJ	.
*Xrep	*
=25	=25
16G\LL	8gg\L
16e\	.
16c\	8ee\J
16e\JJ	.
*rep	*
16G\LL	4ee\
16e\	.
16c\	.
16e\JJ	.
*Xrep	*
*rep	*
16G\LL	4r
16e\	.
16c\	.
16e\JJ	.
*Xrep	*
*rep	*
16G\LL	16ee\LL
16e\	16dd\
16c\	16ee\
16e\JJ	16ff#X\JJ
*Xrep	*
=26	=26
16G\LL	8gg\L
16d\	.
16B\	8dd\J
16d\JJ	.
*rep	*
16G\LL	4dd\
16d\	.
16B\	.
16d\JJ	.
*Xrep	*
*rep	*
16G\LL	4r
16d\	.
16B\	.
16d\JJ	.
*Xrep	*
*rep	*
16G\LL	8r
16d\	.
16B\	8dd\
16d\JJ	.
*Xrep	*
=27	=27
16D\LL	8dd\L
16c\	.
16A\	8cc\
16c\JJ	.
*rep	*
16D\LL	8b\
16c\	.
16A\	8a\J
16c\JJ	.
*Xrep	*
*rep	*
16D\LL	4g\
16c\	.
16A\	.
16c\JJ	.
*Xrep	*
*rep	*
16D\LL	4f#X\
16c\	.
16A\	.
16c\JJ	.
*Xrep	*
=28	=28
4G 4GG/	8bL 8g\
.	8b 8g\
4r	8cc 8a\
.	8ccJ 8a\
4G 4GG/	8ddL 8b\
.	8dd 8b\
4r	8cc 8a\
.	8ccJ 8a\
=29	=29
4G 4GG/	16bLL 16g\
.	16gg\
.	16b 16g\
.	16gg\JJ
4r	16ccLL 16a\
.	16gg\
.	16cc 16a\
.	16gg\JJ
4G 4GG/	16ddLL 16b\
.	16gg\
.	16dd 16b\
.	16gg\JJ
4r	16ccLL 16a\
.	16gg\
.	16cc 16a\
.	16gg\JJ
!!LO:LB:g=original
=30	=30
4G 4GG/	16b\LL
.	16g\
.	16b\
.	16g\JJ
4r	16cc\LL
.	16a\
.	16cc\
.	16a\JJ
4G 4GG/	16dd\LL
.	16b\
.	16dd\
.	16b\JJ
4r	16cc\LL
.	16a\
.	16cc\
.	16a\JJ
=31	=31
4G 4GG/	16bLL 16g\
.	16gg\
.	16b 16g\
.	16gg\JJ
4r	16ccLL 16a\
.	16gg\
.	16cc 16a\
.	16gg\JJ
4G 4GG/	16ddLL 16b\
.	16gg\
.	16dd 16b\
.	16gg\JJ
4r	16ccLL 16a\
.	16gg\
.	16cc 16a\
.	16gg\JJ
=32	=32
4G 4GG/	16bLL 16g\
.	16gg\
.	16b 16g\
.	16gg\JJ
*	*rep
4r	16bLL 16g\
.	16gg\
.	16b 16g\
.	16gg\JJ
*	*Xrep
*	*rep
4r	16bLL 16g\
.	16gg\
.	16b 16g\
.	16gg\JJ
*	*Xrep
*	*rep
!LO:SIC:n=2:s=4FF#:v	!
4F#X 4FF/	16bLL 16g\
.	16gg\
.	16b 16g\
.	16gg\JJ
*	*Xrep
=33	=33
4E 4EE/	16bLL 16g\
.	16gg\
.	16b 16g\
.	16gg\JJ
*	*rep
4G 4GG/	16bLL 16g\
.	16gg\
.	16b 16g\
.	16gg\JJ
*	*Xrep
*	*rep
4E 4EE/	16bLL 16g\
.	16gg\
.	16b 16g\
.	16gg\JJ
*	*Xrep
*	*rep
4C#X 4CC#X/	16bLL 16g\
.	16gg\
.	16b 16g\
.	16gg\JJ
*	*Xrep
=34	=34
*	*rep
*tremolo	*
8C#X 8CC#X/L	16bLL 16g\
.	16gg\
8C#X 8CC#X/	16b 16g\
.	16gg\JJ
*	*Xrep
*	*rep
8C#X 8CC#X/	16bLL 16g\
.	16gg\
8C#X 8CC#X/J	16b 16g\
.	16gg\JJ
*	*Xrep
8D 8DD/L	16ccLL 16a\
.	16ff#X\
8D 8DD/	16cc 16a\
.	16ff#\JJ
*	*rep
8D 8DD/	16ccLL 16a\
.	16ff#\
8D 8DD/J	16cc 16a\
.	16ff#\JJ
*	*Xrep
*Xtremolo	*
=35	=35
!LO:TX:a:t=P:mixed beam:problem	!
8GG/L	4gg 4dd 4b\
8G\	.
8D\	4gg 4dd 4b\
8BB\J	.
4GG/	4gg 4dd 4b\
4r	4r
=36:|!|:	=36:|!|:
*>B	*>B
!LO:TX:a:t=P:mixed beam:problem	!
8GG/L	4.g 4.B/
8G\	.
8G\	.
8G\J	8a 8f#X/
*rep	*
!LO:TX:a:t=P:mixed beam:problem	!
8GG/L	4.b 4.g/
8G\	.
8G\	.
8G\J	8cc 8a\
*Xrep	*
=37	=37
*rep	*
!LO:TX:a:t=P:mixed beam:problem	!
8GG/L	8ddL 8b\
8G\	8g\J
8G\	8ggL 8ee\
8G\J	8eeJ 8cc\
*Xrep	*
*rep	*
!LO:TX:a:t=P:mixed beam:problem	!
8GG/L	8eeL 8cc\
8G\	8ddJ 8b\
8G\	4dd 4b\
8G\J	.
*Xrep	*
=38	=38
8DD/L	4.dd 4.a 4.f#X\
8D/	.
8D/	.
8D/J	8e/
*rep	*
8DD/L	4.f# 4.d/
8D/	.
8D/	.
8D/J	8g 8e/
*Xrep	*
=39	=39
*rep	*
!	!LO:SIC:n=2:s=8f#:v
8DD/L	8aL 8f/
8D/	8d/J
8D/	8eeL 8cc\
8D/J	8ccJ 8a\
*Xrep	*
!LO:TX:a:t=P:mixed beam:problem	!
8GG/L	8ccL 8a\
8G\	8bJ 8g\
8G\	4b 4g\
8G\J	.
=40	=40
16G\LL	4gg 4dd 4b\
16d\	.
16B\	.
16d\JJ	.
*rep	*
16G\LL	4r
16d\	.
16B\	.
16d\JJ	.
*Xrep	*
*rep	*
16G\LL	4r
16d\	.
16B\	.
16d\JJ	.
*Xrep	*
*rep	*
16G\LL	4g/
16d\	.
16B\	.
16d\JJ	.
*Xrep	*
!!LO:LB:g=original
=41	=41
.	8qa#X/
16G\LL	4b\
16d\	.
16B\	.
16d\JJ	.
.	8qcc#X/
*rep	*
16G\LL	4dd\
16d\	.
16B\	.
16d\JJ	.
.	8qff#X/
*Xrep	*
*rep	*
16G\LL	4gg\
16d\	.
16B\	.
16d\JJ	.
.	8qaa#X/
*Xrep	*
*rep	*
16G\LL	4bb\
16d\	.
16B\	.
16d\JJ	.
*Xrep	*
=42	=42
16F\LL	4gg 4dd 4b\
16d\	.
16B\	.
16d\JJ	.
*rep	*
16F\LL	4r
16d\	.
16B\	.
16d\JJ	.
*Xrep	*
*rep	*
16F\LL	4r
16d\	.
16B\	.
16d\JJ	.
*Xrep	*
*rep	*
16F\LL	4g/
16d\	.
16B\	.
16d\JJ	.
*Xrep	*
=43	=43
*rep	*
!LO:TX:a:t=P:w źrodle 3 powtórzenia zamiast 4:problem	!
16F\LL	4b\
16d\	.
16B\	.
16d\JJ	.
*Xrep	*
*rep	*
16F\LL	4dd\
16d\	.
16B\	.
16d\JJ	.
*Xrep	*
*rep	*
16F\LL	4ff\
16d\	.
16B\	.
16d\JJ	.
*Xrep	*
*rep	*
16F\LLyy	4bb\
16d\yy	.
16B\yy	.
16d\JJyy	.
*Xrep	*
=44	=44
16E\LL	4gg#X 4dd 4b\
16d\	.
16B\	.
16d\JJ	.
*rep	*
16E\LL	4r
16d\	.
16B\	.
16d\JJ	.
*Xrep	*
*rep	*
16E\LL	4r
16d\	.
16B\	.
16d\JJ	.
*Xrep	*
*rep	*
16E\LL	4ee\
16d\	.
16B\	.
16d\JJ	.
*Xrep	*
=45	=45
*rep	*
16E\LL	4bb\
16d\	.
16B\	.
16d\JJ	.
*Xrep	*
*rep	*
16E\LL	4ff-X\
16d\	.
16B\	.
16d\JJ	.
*Xrep	*
*rep	*
16E\LL	4dd\
16d\	.
16B\	.
16d\JJ	.
*Xrep	*
*rep	*
16E\LL	4b\
16d\	.
16B\	.
16d\JJ	.
*Xrep	*
=46	=46
16E\LL	4aa 4ee 4cc\
16c\	.
16A\	.
16c\JJ	.
*rep	*
16E\LL	4r
16c\	.
16A\	.
16c\JJ	.
*Xrep	*
16D\LL	4ff#X 4dd 4cc 4a\
16c\	.
16A\	.
16c\JJ	.
*rep	*
16D\LL	4r
16c\	.
16A\	.
16c\JJ	.
*Xrep	*
=47	=47
16D\LL	4gg 4dd 4b\
16B\	.
16G\	.
16B\JJ	.
*rep	*
16D\LL	4r
16B\	.
16G\	.
16B\JJ	.
*Xrep	*
16BB\LL	4ff 4dd 4b\
16G\	.
16D\	.
16G\JJ	.
*rep	*
16BB\LL	4r
16G\	.
16D\	.
16G\JJ	.
*Xrep	*
=48	=48
4G 4E 4C\	16ee\LL
.	16cc\
.	16dd\
.	16ee\JJ
4r	16ff\LL
.	16gg\
.	16aa\
.	16bb\JJ
4c 4C\	16ccc\LL
.	16bb\
.	16aa\
.	16gg\JJ
4r	16ff\LL
.	16ee\
.	16dd\
.	16cc\JJ
=49	=49
!LO:TX:a:t=P:mixed beam:problem	!
8GG/L	4gg 4dd 4b\
8G\	.
8D\	4gg 4dd 4b\
8BB\J	.
4GG/	4gg 4dd 4b\
4r	4r
*clefG2	*
=50	=50
.	8qff#X/
16c/LL	4gg\
16g/	.
16e/	.
16g/JJ	.
*rep	*
16c/LL	4gg\
16g/	.
16e/	.
16g/JJ	.
*Xrep	*
*rep	*
16c/LL	8r
16g/	.
16e/	8gg\L
16g/JJ	.
*Xrep	*
*rep	*
16c/LL	8gg\J
16g/	.
16e/	8ccc\
16g/JJ	.
*Xrep	*
=51	=51
16d/LL	8ccc\L
16g/	.
16f/	8bb\J
16g/JJ	.
*rep	*
16d/LL	2bb\
16g/	.
16f/	.
16g/JJ	.
*Xrep	*
*rep	*
16d/LL	.
16g/	.
16f/	.
16g/JJ	.
*Xrep	*
*rep	*
16d/LL	8r
16g/	.
16f/	8aa\
16g/JJ	.
*Xrep	*
=52	=52
16B/LL	8aa\L
16g/	.
16f/	8gg\J
16g/JJ	.
*rep	*
16B/LL	2gg\
16g/	.
16f/	.
16g/JJ	.
*Xrep	*
*rep	*
16B/LL	.
16g/	.
16f/	.
16g/JJ	.
*Xrep	*
*rep	*
16B/LL	8r
16g/	.
16f/	8ff 8dd\
16g/JJ	.
*Xrep	*
!!LO:PB:g=original
=53	=53
*clefF4	*
*clefG2	*
16c/LL	8ff\L
16g/	.
16e/	8ee\
16g/JJ	.
*rep	*
16c/LL	8aa\
16g/	.
16e/	8gg\J
16g/JJ	.
*Xrep	*
*rep	*
16c/LL	4gg\
16g/	.
16e/	.
16g/JJ	.
*Xrep	*
*rep	*
16c/LL	4r
16g/	.
16e/	.
16g/JJ	.
*Xrep	*
=54	=54
16c/LL	8ccc\L
16a/	.
16f/	8aa\J
16a/JJ	.
*rep	*
16c/LL	4aa\
16a/	.
16f/	.
16a/JJ	.
*Xrep	*
*rep	*
16c/LL	4r
16a/	.
16f/	.
16a/JJ	.
*Xrep	*
*rep	*
16c/LL	16aa\LL
16a/	16gg#X\
16f/	16aa\
16a/JJ	16bb\JJ
*Xrep	*
=55	=55
16c/LL	8ccc\L
16g/	.
16e/	8gg\J
16g/JJ	.
*rep	*
16c/LL	2gg\
16g/	.
16e/	.
16g/JJ	.
*Xrep	*
*rep	*
16c/LL	.
16g/	.
16e/	.
16g/JJ	.
*Xrep	*
*rep	*
16c/LL	8r
16g/	.
16e/	8gg\
16g/JJ	.
*Xrep	*
=56	=56
16d/LL	8gg\L
16g/	.
16f/	8ff\
16g/JJ	.
*rep	*
16d/LL	8ee\
16g/	.
16f/	8dd\J
16g/JJ	.
*Xrep	*
*rep	*
16d/LL	8cc\L
16g/	.
16f/	8b\
16g/JJ	.
*Xrep	*
*rep	*
16d/LL	8dd\
16g/	.
16f/	8ff\J
16g/JJ	.
*Xrep	*
=57	=57
16c/LL	8ff\L
16g/	.
16e/	8ee\
16g/JJ	.
*rep	*
16c/LL	8aa\
16g/	.
16e/	8gg\J
16g/JJ	.
*Xrep	*
*rep	*
16c/LL	4gg\
16g/	.
16e/	.
16g/JJ	.
*Xrep	*
*rep	*
16c/LL	4r
16g/	.
16e/	.
16g/JJ	.
*Xrep	*
=58	=58
16c/LL	8ccc\L
16a/	.
16f/	8aa\J
16a/JJ	.
*rep	*
16c/LL	4aa\
16a/	.
16f/	.
16a/JJ	.
*Xrep	*
*rep	*
16c/LL	4r
16a/	.
16f/	.
16a/JJ	.
*Xrep	*
*rep	*
16c/LL	16aa\LL
16a/	16gg#X\
16f/	16aa\
16a/JJ	16bb\JJ
*Xrep	*
=59	=59
16c/LL	8ccc\L
16g/	.
16e/	8gg\J
16g/JJ	.
*rep	*
16c/LL	2gg\
16g/	.
16e/	.
16g/JJ	.
*Xrep	*
*rep	*
16c/LL	.
16g/	.
16e/	.
16g/JJ	.
*Xrep	*
*rep	*
16c/LL	8r
16g/	.
16e/	8gg\
16g/JJ	.
*Xrep	*
=60	=60
.	8qaa/
16G/LL	8gg\L
16f/	.
16d/	8ff\
16f/JJ	.
.	8qaa/
*rep	*
16G/LL	8gg\
16f/	.
16d/	8ee\J
16f/JJ	.
*Xrep	*
*rep	*
16G/LL	4cc\
16f/	.
16d/	.
16f/JJ	.
*Xrep	*
*rep	*
16G/LL	4bss\
16f/	.
16d/	.
16f/JJ	.
*Xrep	*
=61	=61
!LO:CL:ed	!
*clefF4	*
4c 4C\	8eeL 8cc\
.	8eeJ 8cc\
4r	8ffL 8dd\
.	8ffJ 8dd\
4c 4C\	8ggL 8ee\
.	8ggJ 8ee\
4r	8ffL 8dd\
.	8ffJ 8dd\
=62	=62
*tremolo	*
8c 8C\L	16eeLL 16cc\
.	16ccc\JJ
*	*rep
8c 8C\	16eeLL 16cc\
.	16ccc\JJ
*	*Xrep
8c 8C\	16ffLL 16dd\
.	16ccc\JJ
*	*rep
8c 8C\J	16ffLL 16dd\
.	16ccc\JJ
*	*Xrep
8c 8C\L	16ggLL 16ee\
.	16ccc\JJ
*	*rep
8c 8C\	16ggLL 16ee\
.	16ccc\JJ
*	*Xrep
8c 8C\	16ff#XLL 16dd\
.	16ccc\JJ
*	*rep
8c 8C\J	16ff#LL 16dd\
.	16ccc\JJ
*	*Xrep
*Xtremolo	*
!!LO:LB:g=original
=63	=63
4c 4C\	16ee\LL
.	16cc\
.	16cc\
.	16ee\JJ
4r	16ff\LL
.	16dd\
.	16dd\
.	16ff\JJ
4c 4C\	16gg\LL
.	16ee\
.	16ee\
.	16gg\JJ
4r	16ff\LL
.	16dd\
.	16dd\
.	16ff\JJ
=64	=64
*tremolo	*
8c 8C\L	16eeLL 16cc\
.	16ccc\JJ
*	*rep
8c 8C\	16eeLL 16cc\
.	16ccc\JJ
*	*Xrep
8c 8C\	16ffLL 16dd\
.	16ccc\JJ
*	*rep
8c 8C\J	16ffLL 16dd\
.	16ccc\JJ
*	*Xrep
8c 8C\L	16ggLL 16ee\
.	16ccc\JJ
*	*rep
8c 8C\	16ggLL 16ee\
.	16ccc\JJ
*	*Xrep
8c 8C\	16ffLL 16dd\
.	16ccc\JJ
*	*rep
8c 8C\J	16ffLL 16dd\
.	16ccc\JJ
*	*Xrep
*Xtremolo	*
=65	=65
4c 4C\	16ggLL 16ee 16cc\
.	16ccc\
.	16gg 16ee 16cc\
.	16ccc\JJ
*	*rep
4r	16ggLL 16ee 16cc\
.	16ccc\
.	16gg 16ee 16cc\
.	16ccc\JJ
*	*Xrep
*	*rep
4r	16ggLL 16ee 16cc\
.	16ccc\
.	16gg 16ee 16cc\
.	16ccc\JJ
*	*Xrep
*	*rep
4B 4BB\	16ggLL 16ee 16cc\
.	16ccc\
.	16gg 16ee 16cc\
.	16ccc\JJ
*	*Xrep
=66	=66
*	*rep
4A 4AA\	16ggLL 16ee 16cc\
.	16ccc\
.	16gg 16ee 16cc\
.	16ccc\JJ
*	*Xrep
*	*rep
4c 4C\	16ggLL 16ee 16cc\
.	16ccc\
.	16gg 16ee 16cc\
.	16ccc\JJ
*	*Xrep
*	*rep
4A 4AA\	16ggLL 16ee 16cc\
.	16ccc\
.	16gg 16ee 16cc\
.	16ccc\JJ
*	*Xrep
*	*rep
4F#X\	16ggLL 16ee 16cc\
.	16ccc\
.	16gg 16ee 16cc\
.	16ccc\JJ
*	*Xrep
=67	=67
*tremolo	*
*	*rep
!LO:TX:a:Bi:t=8:rj	!
!LO:TX:a:t=P:w źródle 4 kreski nad dźwiękiem:problem	!
8F#X\L	16ggLL 16ee 16cc\
.	16ccc\
8F#X\	16gg 16ee 16cc\
.	16ccc\JJ
*	*Xrep
*	*rep
8F#X\	16ggLL 16ee 16cc\
.	16ccc\
8F#X\J	16gg 16ee 16cc\
.	16ccc\JJ
*	*Xrep
8G 8GG\L	16ffLL 16dd\
.	16bb\JJ
*	*rep
8G 8GG\	16ffLL 16dd\
.	16bb\JJ
*	*Xrep
*	*rep
8G 8GG\	16ffLL 16dd\
.	16bb\JJ
*	*Xrep
*	*rep
8G 8GG\J	16ffLL 16dd\
.	16bb\JJ
*	*Xrep
*Xtremolo	*
=68	=68
8C\L	4ccc 4gg 4ee\
8c\	.
8G\	4ccc 4gg 4ee\
8E\J	.
4C/	4ccc 4gg 4ee\
4r	4r
!LO:TX:a:t=P:ozdobna kreska końcowa:problem	!LO:TX:a:t=P:ozdobna kreska końcowa:problem
==:|!	==:|!
*-	*-
!!title: @{OTL};
!!!RDF**kern: > = above
!!!RDF**kern: < = below
!!!ENC: Marcin Jachim
!!!END: 2020-06-18
!!!EED: Wojciech Jakubiak-Danek
!!!EST: 2020-12-13
!!!URL-scan: http://bc.bdsandomierz.pl/dlibra/publication/1310/edition/1278/content
!!!ONB-nifc: Str. 4 – str. 5 (s. 2)
